X: 195
T:Domine, ne in furore / Turbatus est a furore
N: Derived from Jos1607-Domine_ne_in_furore.krn
C: Josquin des Prez
%%abc-version 2.0
%%abcx-abcm2ps-target-version 5.9.1 (29 Sep 2008)
%%abc-creator hum2abc beta
%%abcx-conversion-date 2019/02/12 16:15:47
%%abc-edited-by Jesse Rodin
%%abc-edited-by Jesse Rodin; Victoria Chang 2011/05/23
%%abcx-initial-encoding-date 2011/05/23/
%%humdrum-veritas 2437754263
%%humdrum-veritas-data 1887143735
%%linebreak <none>
%%barnumbers 0
L: 1/4
M: 2/1
Q: 1/2=120
%%staves [1 2 3 4]
V: 1 clef=treble
V: 2 clef=treble-8
V: 3 clef=treble-8
V: 4 clef=bass
K: C
[V:1] A6A2 | 
[V:2] z4d4- | 
[V:3] z8 | 
[V:4] z8 | 
[V:1] A4B4 | 
[V:2] d2d2d4 | 
[V:3] z8 | 
[V:4] z8 | 
[V:1] c6A2 | 
[V:2] e4f3f | 
[V:3] z8 | 
[V:4] z8 | 
[V:1] B2c2d4 | 
[V:2] e2e2d4- | 
[V:3] z8 | 
[V:4] z8 | 
[V:1] A6GF | 
[V:2] d2cBA2d2 | 
[V:3] z8 | 
[V:4] z8 | 
[V:1] E2A2G2c2 | 
[V:2] c2f2e2dc | 
[V:3] z8 | 
[V:4] z8 | 
[V:1] B2A4^G2 | 
[V:2] dcBAB4 | 
[V:3] z8 | 
[V:4] z8 | 
[V:1] A4z2E2 | 
[V:2] z2A2B2c2 | 
[V:3] z8 | 
[V:4] z8 | 
[V:1] F2G2A2F2 | 
[V:2] d2B2c2d2 | 
[V:3] z8 | 
[V:4] z8 | 
[V:1] G2A2z2E2 | 
[V:2] z2A2B2c2 | 
[V:3] z8 | 
[V:4] z8 | 
[V:1] F2G2A2GF | 
[V:2] d2e3fd2- | 
[V:3] z8 | 
[V:4] z8 | 
[V:1] EDE2D4 | 
[V:2] d2^c2d4 | 
[V:3] A6A2 | 
[V:4] z4D,4- | 
[V:1] z8 | 
[V:2] z8 | 
[V:3] A4B4 | 
[V:4] D,2D,2D,4 | 
[V:1] z8 | 
[V:2] z8 | 
[V:3] c6A2 | 
[V:4] E,4F,3F, | 
[V:1] z8 | 
[V:2] z8 | 
[V:3] B2c2d4 | 
[V:4] E,2E,2D,4- | 
[V:1] z8 | 
[V:2] z8 | 
[V:3] A6GF | 
[V:4] D,2C,B,,A,,2D,2 | 
[V:1] z8 | 
[V:2] z8 | 
[V:3] E2A2G2c2 | 
[V:4] C,2F,2E,2D,C, | 
[V:1] z8 | 
[V:2] z8 | 
[V:3] B2A4^G2 | 
[V:4] D,C,B,,A,,B,,4 | 
[V:1] z8 | 
[V:2] z8 | 
[V:3] A4z2E2 | 
[V:4] z2A,,2B,,2C,2 | 
[V:1] z8 | 
[V:2] z8 | 
[V:3] F2G2A2F2 | 
[V:4] D,2B,,2C,2D,2 | 
[V:1] z8 | 
[V:2] z8 | 
[V:3] G2A2z2E2 | 
[V:4] z2A,,2B,,2C,2 | 
[V:1] z8 | 
[V:2] z8 | 
[V:3] F2G2A2GF | 
[V:4] D,2E,3D,D,2- | 
[V:1] z8 | 
[V:2] z8 | 
[V:3] EDE2D4 | 
[V:4] D,2^C,2D,4 | 
[V:1] d6d2 | 
[V:2] f6f2 | 
[V:3] A6A2 | 
[V:4] D,6D,2 | 
[V:1] d2d2d4 | 
[V:2] f2f2f4 | 
[V:3] A2A2A4 | 
[V:4] D,2D,2D,4 | 
[V:1] c4c4- | 
[V:2] e4e4- | 
[V:3] A4c4- | 
[V:4] A,,4A,4- | 
[V:1] c2c2B4 | 
[V:2] e2f2g4 | 
[V:3] c2c2d4- | 
[V:4] A,2A,2G,4 | 
[V:1] z2A4G2 | 
[V:2] z2f4e2 | 
[V:3] d4z4 | 
[V:4] z8 | 
[V:1] A2G2A2G2 | 
[V:2] f2e2f2e2 | 
[V:3] z8 | 
[V:4] z8 | 
[V:1] E8- | 
[V:2] c4z4 | 
[V:3] z2c4B2 | 
[V:4] z2A,4G,2 | 
[V:1] E8- | 
[V:2] z8 | 
[V:3] c2B2c2B2 | 
[V:4] A,2G,2A,2G,2 | 
[V:1] E8 | 
[V:2] B8 | 
[V:3] G8 | 
[V:4] E,8 | 
[V:1] G8 | 
[V:2] e8 | 
[V:3] B8 | 
[V:4] E,8 | 
[V:1] G4G4 | 
[V:2] e4e4 | 
[V:3] B4B4 | 
[V:4] E,4E,4 | 
[V:1] A6F2 | 
[V:2] e6d2 | 
[V:3] c6A2 | 
[V:4] A,6D,2 | 
[V:1] F4z2c2- | 
[V:2] d4e4 | 
[V:3] A4c4 | 
[V:4] D,4z4 | 
[V:1] c2A2A4 | 
[V:2] c4z2f2- | 
[V:3] A2A4d2- | 
[V:4] z2F,4D,2 | 
[V:1] d4d2B2- | 
[V:2] f2d2d4 | 
[V:3] d2d2B2B2 | 
[V:4] D,4G,4 | 
[V:1] B2G2G4 | 
[V:2] g4g2e2- | 
[V:3] G6c2- | 
[V:4] G,2E,4C,2 | 
[V:1] c4B2A2- | 
[V:2] e2c2d2f2- | 
[V:3] c2BAG2A2 | 
[V:4] C,4G,2F,2 | 
[V:1] A2GFG4 | 
[V:2] fed4^c2 | 
[V:3] F2A4G2 | 
[V:4] D,4E,4 | 
[V:1] F8 | 
[V:2] d8 | 
[V:3] A8- | 
[V:4] D,8- | 
[V:1] z4A4 | 
[V:2] z2d2f2f2 | 
[V:3] A8 | 
[V:4] D,8 | 
[V:1] c2c2B4 | 
[V:2] e4d4- | 
[V:3] z8 | 
[V:4] z8 | 
[V:1] A6GF | 
[V:2] d2cBA4 | 
[V:3] z8 | 
[V:4] z8 | 
[V:1] E4z2E2 | 
[V:2] z2A2A2A2 | 
[V:3] z8 | 
[V:4] z8 | 
[V:1] E2E2G3F | 
[V:2] c3BG3A | 
[V:3] z8 | 
[V:4] z8 | 
[V:1] DEF4ED | 
[V:2] Bcd4cB | 
[V:3] z8 | 
[V:4] z8 | 
[V:1] A8 | 
[V:2] c2f4f2 | 
[V:3] z2c4c2 | 
[V:4] z2A,4A,2 | 
[V:1] z8 | 
[V:2] g4f2e2 | 
[V:3] d4c2B2 | 
[V:4] _B,4A,2G,2 | 
[V:1] z4z2A2- | 
[V:2] d2^c2d2f2- | 
[V:3] A2G2A4- | 
[V:4] F,2E,2D,4- | 
[V:1] A2A2_B4 | 
[V:2] f2f2g4 | 
[V:3] A4z4 | 
[V:4] D,4z4 | 
[V:1] A2G2F2E2 | 
[V:2] f2e2d2^c2 | 
[V:3] z4z2A2 | 
[V:4] z8 | 
[V:1] D8 | 
[V:2] d8 | 
[V:3] d6d2 | 
[V:4] D,4G,4- | 
[V:1] z8 | 
[V:2] z8 | 
[V:3] d4B2B2 | 
[V:4] G,2G,2G,4 | 
[V:1] z8 | 
[V:2] z8 | 
[V:3] e4z2e2 | 
[V:4] E,2E,2A,4 | 
[V:1] z8 | 
[V:2] z8 | 
[V:3] c2c2A2d2- | 
[V:4] z2A,2F,2F,2 | 
[V:1] z8 | 
[V:2] z8 | 
[V:3] d2B2d2e2 | 
[V:4] D,2G,4E,2 | 
[V:1] z8 | 
[V:2] z8 | 
[V:3] dcBAB4 | 
[V:4] F,E,A,4^G,2 | 
[V:1] z4A4 | 
[V:2] z4f4 | 
[V:3] A4d4 | 
[V:4] A,4D,4 | 
[V:1] A4A4 | 
[V:2] f4f4 | 
[V:3] c4A4 | 
[V:4] F,4F,4 | 
[V:1] G4c4 | 
[V:2] e4e4 | 
[V:3] c6c2 | 
[V:4] C,4C,4 | 
[V:1] B2B2A2A2 | 
[V:2] d2g2g2f2 | 
[V:3] d2d2c2c2 | 
[V:4] G,2G,2A,2A,2 | 
[V:1] d4c2B2- | 
[V:2] g2g2e2g2- | 
[V:3] B2B2A2e2 | 
[V:4] G,2G,2A,2E,2 | 
[V:1] BAA4^G2 | 
[V:2] g2f2e4 | 
[V:3] dcBAB4 | 
[V:4] G,2A,2E,4 | 
[V:1] A8 | 
[V:2] c4z2A2 | 
[V:3] A8 | 
[V:4] A,,8 | 
[V:1] z2E2G2G2 | 
[V:2] c2c2B4 | 
[V:3] z8 | 
[V:4] z8 | 
[V:1] F4E4 | 
[V:2] A4c4 | 
[V:3] z8 | 
[V:4] z8 | 
[V:1] G4F4 | 
[V:2] B4A4 | 
[V:3] z8 | 
[V:4] z8 | 
[V:1] E4z2B2 | 
[V:2] z2e2g4 | 
[V:3] z8 | 
[V:4] z8 | 
[V:1] d4d2d2 | 
[V:2] g2g2f4 | 
[V:3] z8 | 
[V:4] z8 | 
[V:1] c4B4 | 
[V:2] e8 | 
[V:3] z4z2e2- | 
[V:4] z2A,4G,2 | 
[V:1] z4z2A2- | 
[V:2] z4e3e | 
[V:3] e2d2e2c2 | 
[V:4] A,2F,2E,4- | 
[V:1] A2G2A2F2 | 
[V:2] e2e2c4- | 
[V:3] B4A4 | 
[V:4] E,4A,,4- | 
[V:1] E4E2c2 | 
[V:2] c4c4 | 
[V:3] z2c2c2A2 | 
[V:4] A,,4z2A,2 | 
[V:1] c2B2c2A2 | 
[V:2] z2e2e2d2 | 
[V:3] c2G2c2d2 | 
[V:4] A,2G,2A,2F,2 | 
[V:1] G4G4 | 
[V:2] e3ee2e2 | 
[V:3] B8 | 
[V:4] E,4E,4 | 
[V:1] E8 | 
[V:2] c6BA | 
[V:3] A4z2c2- | 
[V:4] A,,8 | 
[V:1] z8 | 
[V:2] A8 | 
[V:3] c2c2A4 | 
[V:4] z2F,4F,2 | 
[V:1] z8 | 
[V:2] z8 | 
[V:3] d3cBAG2 | 
[V:4] D,4G,3F, | 
[V:1] z8 | 
[V:2] z8 | 
[V:3] z2G2A2B2 | 
[V:4] E,D,C,2F,2G,2 | 
[V:1] z4D4 | 
[V:2] z8 | 
[V:3] c2d4cB | 
[V:4] A,2B,4A,G, | 
[V:1] A4G2E2 | 
[V:2] A4e4 | 
[V:3] c8 | 
[V:4] A,4z4 | 
[V:1] F2G2A2A2 | 
[V:2] d2B2c2d2 | 
[V:3] z8 | 
[V:4] z8 | 
[V:1] G2c4B2 | 
[V:2] e2e2e2g2 | 
[V:3] z8 | 
[V:4] z4G,4 | 
[V:1] A4G4- | 
[V:2] f2f2e4 | 
[V:3] z8 | 
[V:4] A,2B,2C4 | 
[V:1] G4z2G2 | 
[V:2] z2g2a3g | 
[V:3] z2d2e3d | 
[V:4] B,2G,2C3B, | 
[V:1] A2B2c4 | 
[V:2] feg3^f^fe | 
[V:3] cBd3ccB | 
[V:4] A,2G,2A,4 | 
[V:1] B2G2c3B | 
[V:2] g4g2e2 | 
[V:3] d4e3d | 
[V:4] G,4C,4 | 
[V:1] A2G2A4 | 
[V:2] f2e2e4 | 
[V:3] d2B2c4 | 
[V:4] D,2E,2A,,4 | 
[V:1] G8 ||  
[V:2] e8 ||  
[V:3] B8 ||  
[V:4] E,8 ||  
[V:1] [M:2/1]z8 | 
[V:2] [M:2/1]d4d2d2 | 
[V:3] [M:2/1]z8 | 
[V:4] [M:2/1]z8 | 
[V:1] A4A2A2 | 
[V:2] c4f2f2 | 
[V:3] z8 | 
[V:4] z8 | 
[V:1] G4c4- | 
[V:2] edcBABcd | 
[V:3] z4A4 | 
[V:4] z8 | 
[V:1] c2c2BAGF | 
[V:2] e2f2g4 | 
[V:3] A2A2G4 | 
[V:4] z8 | 
[V:1] E8 | 
[V:2] z2c2e2f2 | 
[V:3] c6c2 | 
[V:4] A,,4A,,2A,,2 | 
[V:1] B4c4- | 
[V:2] g4z2G2- | 
[V:3] BAGFE3F | 
[V:4] G,,4C,4- | 
[V:1] c2c2d4 | 
[V:2] GFE4D2 | 
[V:3] GEA4^G2 | 
[V:4] C,2C,2B,,4 | 
[V:1] c8 | 
[V:2] E2e2f4 | 
[V:3] A4c4 | 
[V:4] A,,4A,4 | 
[V:1] z4A4 | 
[V:2] e2d2f4 | 
[V:3] B2A2c4 | 
[V:4] G,2F,2A,4 | 
[V:1] G2F2A4 | 
[V:2] edcBA4 | 
[V:3] B2A4GF | 
[V:4] E,2F,4E,D, | 
[V:1] E4z2G2 | 
[V:2] c4B2e2- | 
[V:3] G8 | 
[V:4] C,2E,4G,2 | 
[V:1] A4G4 | 
[V:2] e2d2e4 | 
[V:3] z4G4 | 
[V:4] F,4E,3D, | 
[V:1] c4B4 | 
[V:2] z2e2g3f | 
[V:3] A4G4 | 
[V:4] C,2A,,2E,4 | 
[V:1] A2A4^G2 | 
[V:2] ede4d2 | 
[V:3] c4B4 | 
[V:4] A,,4z4 | 
[V:1] A4z2A2 | 
[V:2] e2f2F2A2- | 
[V:3] A4A2A2 | 
[V:4] z2D,4C,2 | 
[V:1] B4c2AB | 
[V:2] A2G2A2c2- | 
[V:3] d4c2f2 | 
[V:4] B,,4A,,4 | 
[V:1] cAd4^c2 | 
[V:2] cBG2c4 | 
[V:3] e2d2e4 | 
[V:4] A,2B,2A,4 | 
[V:1] d8- | 
[V:2] A4B4 | 
[V:3] d8 | 
[V:4] D,8 | 
[V:1] d8 | 
[V:2] A4z4 | 
[V:3] z4A4 | 
[V:4] D,4D,2E,2 | 
[V:1] z8 | 
[V:2] z8 | 
[V:3] A2B2c2d2 | 
[V:4] F,2G,2A,2F,2 | 
[V:1] z8 | 
[V:2] z8 | 
[V:3] e2c2B4 | 
[V:4] E,4z2E,2 | 
[V:1] z8 | 
[V:2] z8 | 
[V:3] z2B2d2d2 | 
[V:4] G,2G,2F,2D,2 | 
[V:1] z8 | 
[V:2] z8 | 
[V:3] c2A2e2e2 | 
[V:4] A,4G,4 | 
[V:1] z8 | 
[V:2] z8 | 
[V:3] dcededcB | 
[V:4] G,6G,2 | 
[V:1] z8 | 
[V:2] z8 | 
[V:3] A2d4^c2 | 
[V:4] F,2E,D,E,4 | 
[V:1] z2F4D2 | 
[V:2] z8 | 
[V:3] d8- | 
[V:4] D,8- | 
[V:1] D4A4 | 
[V:2] z4f4- | 
[V:3] d8 | 
[V:4] D,8 | 
[V:1] A2F2F4 | 
[V:2] f2d2d4 | 
[V:3] z8 | 
[V:4] z8 | 
[V:1] c6A2 | 
[V:2] a4a2f2- | 
[V:3] z8 | 
[V:4] z8 | 
[V:1] A2d2B2c2 | 
[V:2] f2d2g2e2 | 
[V:3] z8 | 
[V:4] z8 | 
[V:1] d2B3GG2 | 
[V:2] f2g2e3c | 
[V:3] z8 | 
[V:4] z8 | 
[V:1] c2A2B2G2 | 
[V:2] c2f2d2e2 | 
[V:3] z8 | 
[V:4] z8 | 
[V:1] A2GFEDE2 | 
[V:2] A2d4^c2 | 
[V:3] z8 | 
[V:4] z8 | 
[V:1] D4A4- | 
[V:2] d4e4- | 
[V:3] z4c4- | 
[V:4] z4A,,4- | 
[V:1] A4A4 | 
[V:2] e4e4 | 
[V:3] c4c4 | 
[V:4] A,,4A,,4 | 
[V:1] A4A4 | 
[V:2] e4e4 | 
[V:3] c4c4 | 
[V:4] A,,4A,,4 | 
[V:1] G6E2 | 
[V:2] e6c2 | 
[V:3] B6A2 | 
[V:4] E,6A,,2 | 
[V:1] E8 | 
[V:2] c4G4 | 
[V:3] A2c4c2 | 
[V:4] A,,4C,4 | 
[V:1] F6ED | 
[V:2] _B8 | 
[V:3] d8 | 
[V:4] _B,,8 | 
[V:1] E8 | 
[V:2] G8 | 
[V:3] c8 | 
[V:4] C,8 | 
[V:1] z4E4 | 
[V:2] z4c4 | 
[V:3] z4G4 | 
[V:4] z4C,4 | 
[V:1] E2E4E2 | 
[V:2] c2c4c2 | 
[V:3] G2G4G2 | 
[V:4] C,2C,4C,2 | 
[V:1] A4G4 | 
[V:2] c4e4 | 
[V:3] A4c4 | 
[V:4] F,4C,4 | 
[V:1] F8 | 
[V:2] d8 | 
[V:3] A8 | 
[V:4] D,8 | 
[V:1] D4z2D2- | 
[V:2] B8 | 
[V:3] G8 | 
[V:4] G,,8 | 
[V:1] D2D2F4- | 
[V:2] z8 | 
[V:3] z4z2A2- | 
[V:4] z2D,4D,2 | 
[V:1] F2EDC2F2 | 
[V:2] z8 | 
[V:3] A2A2c4- | 
[V:4] F,6E,D, | 
[V:1] E2C2G4- | 
[V:2] z8 | 
[V:3] c2BAG2c2 | 
[V:4] C,2F,2E,2C,2 | 
[V:1] G4E4 | 
[V:2] z8 | 
[V:3] B2G2B2B2 | 
[V:4] G,2G,2G,4 | 
[V:1] F4E2D2- | 
[V:2] z8 | 
[V:3] c4B2A2- | 
[V:4] A,4G,2F,2 | 
[V:1] D2^C2D4 | 
[V:2] z8 | 
[V:3] A2G2A4 | 
[V:4] E,4D,4- | 
[V:1] d8 | 
[V:2] A8 | 
[V:3] F8 | 
[V:4] D,4D,4- | 
[V:1] d4d4 | 
[V:2] A4G4 | 
[V:3] F4D4 | 
[V:4] D,4B,,4 | 
[V:1] c8 | 
[V:2] A4c4 | 
[V:3] E4z2A2 | 
[V:4] A,,4A,4 | 
[V:1] z4A4 | 
[V:2] d2e4d2 | 
[V:3] B2c2A3B | 
[V:4] G,2E,2F,4 | 
[V:1] G2E2F4 | 
[V:2] e4z4 | 
[V:3] cBe4d2 | 
[V:4] E,4z2D,2 | 
[V:1] E2c2B2c2- | 
[V:2] z2A2B2A2 | 
[V:3] e8- | 
[V:4] A,4G,2A,2- | 
[V:1] c2BAG4 | 
[V:2] c2d2e4 | 
[V:3] e8 | 
[V:4] A,2G,F,E,4 | 
[V:1] A4A2A2- | 
[V:2] A2f2f2f2- | 
[V:3] c4c2c2- | 
[V:4] F,4F,2F,2- | 
[V:1] A2G2A2E2 | 
[V:2] f2g2f2e2 | 
[V:3] c2c2c2c2 | 
[V:4] F,2E,2F,2C,2 | 
[V:1] F4A4- | 
[V:2] d4e4 | 
[V:3] A4c4 | 
[V:4] D,4A,4 | 
[V:1] A8- | 
[V:2] c6c2 | 
[V:3] e6e2 | 
[V:4] z2A,,4A,,2 | 
[V:1] A4z4 | 
[V:2] f4e4 | 
[V:3] d4G4 | 
[V:4] D,4C,4 | 
[V:1] z2E4E2 | 
[V:2] c4c2c2 | 
[V:3] G6G2 | 
[V:4] z2C,2C,2C,2 | 
[V:1] A4G4 | 
[V:2] d4e4 | 
[V:3] A4B4 | 
[V:4] F,4E,4 | 
[V:1] z2G2G2G2 | 
[V:2] e4e2e2 | 
[V:3] B4B2B2 | 
[V:4] z2E,2E,2E,2 | 
[V:1] c4B4 | 
[V:2] f4g4 | 
[V:3] c4d3c | 
[V:4] A,4G,4 | 
[V:1] z2A2A2A2 | 
[V:2] f4e2f2- | 
[V:3] d2ABc2A2- | 
[V:4] D,4C,2D,2 | 
[V:1] d4c4 | 
[V:2] f2edf2e2- | 
[V:3] A2^G2A4 | 
[V:4] B,,4A,,4 | 
[V:1] z2G2AGFE | 
[V:2] e2e2fed^c | 
[V:3] z8 | 
[V:4] z8 | 
[V:1] D4z4 | 
[V:2] d2B2cBAG | 
[V:3] z2d2fed^c | 
[V:4] z2G,2A,G,F,E, | 
[V:1] z2B2A2G2 | 
[V:2] A2d2f2e2 | 
[V:3] d4z4 | 
[V:4] D,4z4 | 
[V:1] F2E2D2d2 | 
[V:2] d2^c2d2G2 | 
[V:3] z4z2d2 | 
[V:4] z4z2B,2 | 
[V:1] c2B2A2G2 | 
[V:2] c2d2A2c2 | 
[V:3] A2B2c2G2 | 
[V:4] A,2G,2F,2E,2 | 
[V:1] F4G2_B2- | 
[V:2] d4d4- | 
[V:3] A4_B4- | 
[V:4] D,4G,,4- | 
[V:1] B2AGF4 |]  
[V:2] d4d4 |]  
[V:3] B4A4 |]  
[V:4] G,,4D,4 |]  



